dist/svgs/crypto-icons/icons/bcn.svg

<?xml version="1.0" encoding="UTF-8" standalone="yes"?>
<svg xmlns="http://www.w3.org/2000/svg" xmlns:xlink="http://www.w3.org/1999/xlink" width="512px" height="512px" viewBox="0 0 384 384" version="1.1">
  <g id="surface1">
    <path style=" stroke:none;fill-rule:nonzero;fill:rgb(0%,0%,0%);fill-opacity:1;" d="M 321.746094 164.265625 C 321.746094 164.265625 357.496094 142.285156 357.496094 103.453125 C 357.496094 64.621094 319.898438 15.117188 260.722656 15.117188 L 94.515625 15.117188 L 94.515625 123.582031 L 0 123.582031 L 0 169.808594 L 94.515625 169.808594 L 94.515625 231.136719 L 0 231.136719 L 0 277.363281 L 94.515625 277.363281 L 94.515625 368.507812 L 248.398438 368.507812 C 321.128906 368.507812 383.382812 328.835938 383.382812 256.714844 C 383.382812 184.609375 321.746094 164.265625 321.746094 164.265625 Z M 234.222656 63.796875 C 265.042969 63.796875 296.476562 78.582031 296.476562 112.179688 C 296.476562 145.773438 263.195312 162.71875 232.371094 162.71875 L 157.792969 162.71875 L 157.792969 63.796875 Z M 244.632812 310.34375 L 157.792969 310.34375 L 157.792969 203.097656 L 244.085938 203.097656 C 301.40625 203.097656 325.128906 226.820312 325.128906 261.648438 C 325.128906 296.476562 283.46875 310.34375 244.632812 310.34375 Z M 244.632812 310.34375 "/>
  </g>
</svg>

<svg xmlns="http://www.w3.org/2000/svg" viewBox="0 0 384 384"><path d="M321.746 164.266s35.75-21.98 35.75-60.813c0-38.832-37.598-88.336-96.773-88.336H94.516v108.465H0v46.227h94.516v61.328H0v46.226h94.516v91.145h153.882c72.73 0 134.985-39.672 134.985-111.793 0-72.106-61.637-92.45-61.637-92.45zm-87.523-100.47c30.82 0 62.254 14.786 62.254 48.384 0 33.593-33.282 50.539-64.106 50.539h-74.578V63.797zm10.41 246.548h-86.84V203.098h86.293c57.32 0 81.043 23.722 81.043 58.55 0 34.829-41.66 48.696-80.496 48.696zm0 0"/></svg>
